assets/svg/action_createpost_logout.svg

<svg width="80" height="80" viewBox="0 0 80 80" fill="none" xmlns="http://www.w3.org/2000/svg">
<path d="M54.8115 69.9082C54.4724 69.9082 54.1975 70.1831 54.1975 70.5223C54.1975 72.866 52.2975 74.766 49.9537 74.766H31.1943C29.685 74.766 28.46 75.991 28.46 77.5004H49.9537C53.8084 77.5004 56.9318 74.3754 56.9318 70.5223V69.9082H54.8115Z" fill="#E1EAF8"/>
<path d="M43.9428 8.05313H32.46C31.5193 8.05313 30.6834 7.45156 30.385 6.55781L29.0303 2.5H47.3709L46.0178 6.55781C45.8722 6.99307 45.5936 7.37159 45.2213 7.63991C44.8489 7.90823 44.4017 8.05277 43.9428 8.05313Z" fill="#E1EAF8"/>
<path d="M43.0156 63.4894C43.1127 63.4572 43.1946 63.3997 43.2573 63.3259C43.3186 63.2542 43.3603 63.1679 43.3783 63.0754C43.3963 62.9828 43.39 62.8872 43.36 62.7978C43.3374 62.7297 43.3015 62.6667 43.2544 62.6125C43.2073 62.5583 43.15 62.5139 43.0857 62.4819C43.0215 62.4499 42.9515 62.4309 42.8799 62.426C42.8083 62.4211 42.7364 62.4304 42.6684 62.4533L38.8111 63.748C38.7429 63.7707 38.68 63.8066 38.6258 63.8537C38.5715 63.9007 38.5272 63.958 38.4952 64.0223C38.4632 64.0866 38.4442 64.1565 38.4393 64.2282C38.4343 64.2998 38.4436 64.3717 38.4666 64.4397C38.4892 64.5078 38.5252 64.5708 38.5722 64.625C38.6193 64.6792 38.6766 64.7236 38.7409 64.7556C38.8051 64.7876 38.8751 64.8066 38.9467 64.8115C39.0183 64.8164 39.0902 64.8071 39.1582 64.7842L43.0156 63.4894Z" fill="#FD4E4E"/>
<path d="M47.5176 71.9684C47.6431 71.9463 47.757 71.8811 47.8396 71.784C47.8821 71.734 47.9172 71.6736 47.9407 71.6074L49.2637 67.76C49.3615 67.4739 49.2101 67.1624 48.924 67.0646C48.6379 66.9668 48.3264 67.1183 48.2287 67.4044L46.9056 71.2518C46.8641 71.3723 46.8661 71.5035 46.9111 71.6228C46.9561 71.742 47.0413 71.8418 47.1521 71.9049C47.2628 71.968 47.3921 71.9904 47.5176 71.9684Z" fill="#FD4E4E"/>
<path d="M68.8477 44.3211C68.7506 44.3533 68.6687 44.4109 68.6059 44.4847C68.5447 44.5563 68.503 44.6426 68.485 44.7352C68.467 44.8277 68.4733 44.9234 68.5032 45.0128C68.5259 45.0809 68.5618 45.1439 68.6089 45.1981C68.656 45.2523 68.7133 45.2967 68.7775 45.3287C68.8418 45.3607 68.9118 45.3797 68.9834 45.3846C69.055 45.3895 69.1269 45.3802 69.1949 45.3573L73.0522 44.0625C73.1203 44.0399 73.1833 44.0039 73.2375 43.9569C73.2917 43.9098 73.3361 43.8525 73.3681 43.7882C73.4001 43.724 73.4191 43.654 73.424 43.5824C73.4289 43.5108 73.4197 43.4389 73.3967 43.3709C73.374 43.3027 73.3381 43.2398 73.2911 43.1856C73.244 43.1314 73.1867 43.087 73.1224 43.055C73.0582 43.023 72.9882 43.004 72.9166 42.9991C72.845 42.9942 72.7731 43.0034 72.705 43.0264L68.8477 44.3211Z" fill="#FD4E4E"/>
<path d="M64.3457 35.8422C64.2201 35.8642 64.1063 35.9294 64.0237 36.0265C63.9812 36.0765 63.9461 36.137 63.9226 36.2031L62.5996 40.0506C62.5018 40.3366 62.6532 40.6481 62.9393 40.7459C63.2254 40.8437 63.5368 40.6923 63.6346 40.4062L64.9577 36.5588C64.9991 36.4382 64.9972 36.307 64.9522 36.1878C64.9072 36.0686 64.822 35.9688 64.7112 35.9057C64.6005 35.8426 64.4712 35.8201 64.3457 35.8422Z" fill="#FD4E4E"/>
<path d="M56.2244 69.6327C56.2244 69.3311 56.4697 69.0858 56.7713 69.0858C57.0744 69.0858 57.3182 69.3296 57.3166 69.6327V70.5218C57.3166 74.6702 53.9416 78.0468 49.7916 78.0468H26.2838C22.1354 78.0468 18.7588 74.6718 18.7588 70.5218L18.7594 67.9993L18.7589 64.2137C18.7588 63.9112 19.004 63.666 19.3065 63.666C19.6089 63.666 19.8541 63.9112 19.8541 64.2136V70.5218C19.8541 74.0671 22.7385 76.953 26.2854 76.953H49.7932C53.3385 76.953 56.2244 74.0686 56.2244 70.5218V69.6327Z" fill="#9A9A9A"/>
<path d="M27.3873 38.5645H46.5076C46.8092 38.5645 47.0545 38.3191 47.0545 38.0176C47.0545 37.716 46.8092 37.4707 46.5076 37.4707H27.3873C27.0857 37.4707 26.8404 37.716 26.8404 38.0176C26.8404 38.3191 27.0857 38.5645 27.3873 38.5645Z" fill="#9A9A9A"/>
<path d="M27.3854 44.0035H41.5057C41.8072 44.0035 42.0525 43.7582 42.0525 43.4566C42.0525 43.155 41.8072 42.9097 41.5057 42.9097H27.3854C27.0838 42.9097 26.8385 43.155 26.8385 43.4566C26.8385 43.7582 27.0838 44.0035 27.3854 44.0035ZM37.0322 49.1129H27.3291C27.0275 49.1129 26.7822 49.3582 26.7822 49.6597C26.7822 49.9613 27.0275 50.2066 27.3291 50.2066H37.0322C37.3338 50.2066 37.5791 49.9613 37.5791 49.6597C37.5791 49.3582 37.3338 49.1129 37.0322 49.1129ZM37.0322 54.5519H27.3291C27.0275 54.5519 26.7822 54.7972 26.7822 55.0988C26.7822 55.4004 27.0275 55.6457 27.3291 55.6457H37.0322C37.3338 55.6457 37.5791 55.4004 37.5791 55.0988C37.5791 54.7972 37.3338 54.5519 37.0322 54.5519Z" fill="#9A9A9A"/>
<path d="M18.7609 9.47813V60.0273C18.7609 60.3298 19.0061 60.575 19.3086 60.575C19.6111 60.575 19.8563 60.3298 19.8563 60.0273V9.47813C19.8563 5.93281 22.7406 3.04688 26.2875 3.04688H49.7953C53.3406 3.04688 56.2266 5.93125 56.2266 9.47813V38.1719C56.2266 38.4734 56.4719 38.7188 56.7734 38.7188C57.075 38.7188 57.3203 38.4734 57.3203 38.1719V9.47813C57.3203 5.32969 53.9453 1.95312 49.7953 1.95312H26.2859C22.1375 1.95312 18.7609 5.32813 18.7609 9.47813Z" fill="#9A9A9A"/>
<path d="M30.599 18.5562C30.599 16.9234 31.9224 15.6 33.5546 15.6H42.4436C44.0758 15.6 45.3992 16.9234 45.3992 18.5562C45.3992 20.1889 44.0758 21.5124 42.4436 21.5124H33.5546C31.9224 21.5124 30.599 20.1889 30.599 18.5562ZM30.599 27.4424C30.599 25.8096 31.9224 24.4862 33.5546 24.4862H42.4436C44.0758 24.4862 45.3992 25.8096 45.3992 27.4424C45.3992 29.0751 44.0758 30.3986 42.4436 30.3986H33.5546C31.9224 30.3986 30.599 29.0751 30.599 27.4424Z" stroke="#9A9A9A" stroke-width="1.2"/>
<path fill-rule="evenodd" clip-rule="evenodd" d="M57 66C63.6274 66 69 60.6274 69 54C69 47.3726 63.6274 42 57 42C50.3726 42 45 47.3726 45 54C45 60.6274 50.3726 66 57 66Z" fill="#FD4E4E"/>
<path d="M60.5166 51.441C60.5166 50.6636 60.3372 49.9461 59.8588 49.4079C59.3805 48.8698 58.6629 48.5708 57.766 48.6306H54.4174C53.5205 48.6306 52.803 48.8698 52.3246 49.4079C51.8462 49.9461 51.6668 50.6636 51.6668 51.441V56.4638C51.6668 57.301 51.8462 58.0185 52.3246 58.5567C52.803 59.035 53.5205 59.334 54.4174 59.334H57.766C58.6629 59.334 59.3805 59.0948 59.8588 58.5567C60.3372 58.0185 60.5166 57.2412 60.5166 56.4638" stroke="white" stroke-width="1.1" stroke-linecap="round"/>
<path d="M63.2654 53.9512H57.8838" stroke="white" stroke-width="1.1" stroke-linecap="round"/>
<path d="M63.2654 53.9519L61.7705 52.457" stroke="white" stroke-width="1.1" stroke-linecap="round"/>
<path d="M63.2654 54.0117L61.7705 55.5664" stroke="white" stroke-width="1.1" stroke-linecap="round"/>
</svg>

<svg xmlns="http://www.w3.org/2000/svg" width="80" height="80" fill="none"><path fill="#E1EAF8" d="M54.812 69.908a.614.614 0 0 0-.614.614c0 2.344-1.9 4.244-4.244 4.244h-18.76A2.735 2.735 0 0 0 28.46 77.5h21.494a6.98 6.98 0 0 0 6.978-6.978v-.614zM43.943 8.053H32.46c-.94 0-1.777-.601-2.075-1.495L29.03 2.5h18.34l-1.352 4.058a2.19 2.19 0 0 1-2.075 1.495"/><path fill="#FD4E4E" d="M43.016 63.49a.546.546 0 1 0-.347-1.036l-3.858 1.294a.545.545 0 0 0-.239.877.55.55 0 0 0 .586.16zM47.518 71.968a.55.55 0 0 0 .423-.36l1.323-3.848a.547.547 0 1 0-1.035-.356l-1.323 3.848a.547.547 0 0 0 .612.716M68.848 44.321a.54.54 0 0 0-.363.414.546.546 0 0 0 .71.622l3.857-1.294a.545.545 0 1 0-.347-1.037zM64.346 35.842a.55.55 0 0 0-.423.361L62.6 40.051a.547.547 0 1 0 1.035.355l1.323-3.847a.547.547 0 0 0-.612-.717"/><path fill="#9A9A9A" d="M56.224 69.633c0-.302.246-.547.547-.547.303 0 .547.244.546.547v.889c0 4.148-3.375 7.525-7.525 7.525H26.284c-4.149 0-7.525-3.375-7.525-7.525v-6.308a.548.548 0 1 1 1.095 0v6.308a6.44 6.44 0 0 0 6.431 6.431h23.508a6.44 6.44 0 0 0 6.431-6.431zM27.387 38.565h19.12a.548.548 0 0 0 0-1.094h-19.12a.547.547 0 0 0 0 1.094M27.385 44.004h14.12a.547.547 0 0 0 0-1.094h-14.12a.547.547 0 0 0 0 1.094m9.647 5.109H27.33a.547.547 0 0 0 0 1.094h9.703a.547.547 0 0 0 0-1.094m0 5.439H27.33a.547.547 0 0 0 0 1.094h9.703a.547.547 0 0 0 0-1.094"/><path fill="#9A9A9A" d="M18.76 9.478v50.55a.548.548 0 1 0 1.096 0V9.477a6.44 6.44 0 0 1 6.432-6.431h23.507a6.44 6.44 0 0 1 6.432 6.431v28.694a.548.548 0 0 0 1.093 0V9.478c0-4.148-3.375-7.525-7.525-7.525h-23.51c-4.148 0-7.524 3.375-7.524 7.525"/><path stroke="#9A9A9A" stroke-width="1.2" d="M30.599 18.556a2.956 2.956 0 0 1 2.956-2.956h8.889a2.956 2.956 0 0 1 0 5.912h-8.89a2.956 2.956 0 0 1-2.955-2.956Zm0 8.886a2.956 2.956 0 0 1 2.956-2.956h8.889a2.956 2.956 0 0 1 0 5.913h-8.89a2.956 2.956 0 0 1-2.955-2.957Z"/><path fill="#FD4E4E" fill-rule="evenodd" d="M57 66c6.627 0 12-5.373 12-12s-5.373-12-12-12-12 5.373-12 12 5.373 12 12 12" clip-rule="evenodd"/><path stroke="#fff" stroke-linecap="round" stroke-width="1.1" d="M60.517 51.441c0-.777-.18-1.495-.658-2.033s-1.196-.837-2.093-.777h-3.349c-.897 0-1.614.239-2.092.777-.479.538-.658 1.256-.658 2.033v5.023c0 .837.18 1.555.658 2.093.478.478 1.195.777 2.092.777h3.349c.897 0 1.614-.24 2.093-.777.478-.538.658-1.316.658-2.093M63.265 53.951h-5.381M63.265 53.952l-1.495-1.495M63.265 54.012l-1.495 1.554"/></svg>
